assets/sonr-icons/text-bold.svg

<svg xmlns="http://www.w3.org/2000/svg" width="24" height="24" fill="none" viewBox="0 0 24 24"><path fill="#000" d="M5 10H13C16.314 10 19 12.686 19 16C19 19.314 16.314 22 13 22H8C6.343 22 5 20.657 5 19V10ZM7 12V19C7 19.552 7.448 20 8 20H13C15.209 20 17 18.209 17 16C17 13.791 15.209 12 13 12H7Z"/><path fill="#000" d="M5 5C5 3.343 6.343 2 8 2H12C14.761 2 17 4.239 17 7C17 9.761 14.761 12 12 12H5V5ZM8 4C7.448 4 7 4.448 7 5V10H12C13.657 10 15 8.657 15 7C15 5.343 13.657 4 12 4H8Z"/></svg>

<svg xmlns="http://www.w3.org/2000/svg" width="24" height="24" fill="none"><path fill="currentColor" d="M5 10h8a6 6 0 1 1 0 12H8a3 3 0 0 1-3-3zm2 2v7a1 1 0 0 0 1 1h5a4 4 0 0 0 0-8z"/><path fill="currentColor" d="M5 5a3 3 0 0 1 3-3h4a5 5 0 0 1 0 10H5zm3-1a1 1 0 0 0-1 1v5h5a3 3 0 1 0 0-6z"/></svg>
